!!!SOCIAL_FUNCTION:	bird dance songs
!!!PDT:	1932
!!!OTL: No_105_Song_at_About_Midnight_(c).krn
!!!REG: Southwest
!!!LANG: Non-Tone
!!!LING_GROUP: Yuman-Cochimi
**kern	**kern
*staff2	*staff1
=1-	=1-
*clefF4	*clefF4
*k[b-]	*k[b-]
*M2/4	*M2/4
8r	4r
8GG/	.
8GG/L	16G\LK
.	8.F\J
8GG/J	.
=2	=2
8r	4c\
8GG/	.
8GG/L	4B-\
8GG/J	.
=3	=3
8r	2G\
8GG/	.
8GG/L	.
8GG/J	.
=4	=4
8r	4c\
8GG/	.
8GG/L	4c\
8GG/J	.
=5	=5
8r	4.c\
8GG/	.
8GG/L	.
8GG/J	8B-\
=6	=6
8r	8G\L
8GG/	8F\J
8GG/L	4F\
8GG/J	.
=7!|:	=7!|:
8r	4B-\
8GG/	.
8GG/L	8c\L
8GG/J	8B-\J
=8	=8
8r	4.B-\
8GG/	.
8GG/L	.
8GG/J	8G\
=9	=9
8r	8F\L
8GG/	8F\J
8GG/L	4F\
8GG/J	.
=10	=10
8GG/	4F\
8r	.
4r	4r
=11||	=11||
*M4/4	*M4/4
4r	4r
4r	4F\
12GG/L	12G\L
12GG/	12F\
12GG/J	12F\J
8GG/L	8G\L
8GG/J	8F\J
=12||	=12||
*M2/4	*M2/4
8r	4B-\
8GG/	.
8GG/L	8c\L
8GG/J	8B-\J
=13	=13
8r	4.B-\
8GG/	.
8GG/L	.
8GG/J	8G\
=14	=14
8r	8F\L
8GG/	8F\J
8GG/L	4F\
8GG/J	.
=15	=15
8GG/	4F\
8r	.
4r	4r
=16||	=16||
*M4/4	*M4/4
4r	4r
4r	4F\
12r	12G\L
12GG/L	12F\
12GG/J	12F\J
8GG/L	8G\L
8GG/J	8F\J
=17||	=17||
*M2/4	*M2/4
8r	4B-\
8GG/	.
8GG/L	8c\L
8GG/J	8B-\J
=18	=18
8r	4.B-\
8GG/	.
8GG/L	.
8GG/J	8G\
=19	=19
8r	8F\L
8GG/	8F\J
8GG/L	4F\
8GG/J	.
=20	=20
8GG/	4F\
8r	.
4r	4r
=21:|!	=21:|!
2r	2r
=22	=22
2r	8r
.	16r
.	16F\
.	4F\
=23	=23
2r	4c\
.	4B-\
=24	=24
2r	4G\
.	8r
.	8c\
=25	=25
2r	8.c\L
.	16c\Jk
.	4c\
=26	=26
2r	16B-\LK
.	8A\
.	16F\Jk
.	4F\
=27	=27
8r	4B-\
8GG/	.
8GG/L	8c\L
8GG/J	8B-\J
=28	=28
8r	4.B-\
8GG/	.
8GG/L	.
8GG/J	8G\
=29	=29
8r	8F\L
8GG/	8F\J
8GG/L	4F\
8GG/J	.
=30	=30
8GG/	4F\
8r	.
4r	4r
=31||	=31||
*M4/4	*M4/4
4r	4r
4r	4F\
12r	12G\L
12GG/L	12F\
12GG/J	12F\J
8GG/L	8G\L
8GG/J	8F\J
=32||	=32||
*M2/4	*M2/4
8r	4B-\
8GG/	.
8GG/L	8c\L
8GG/J	8B-\J
=33	=33
8r	4B-\
8GG/	.
8GG/L	4G\
8GG/J	.
=34	=34
8r	8F\L
8GG/	8F\J
8GG/L	4F\
8GG/J	.
=35	=35
8GG/	4F\
8r	.
4r	4r
==	==
*-	*-
